svgs/ntv.svg

<svg xmlns="http://www.w3.org/2000/svg" viewBox="0 0 192 192"><path fill="none" stroke="#000" stroke-linecap="round" stroke-linejoin="round" stroke-width="12" d="M89.487 16.5v136.267c-.193 3.984.335 7.974 1.523 11.504 1.187 3.53 2.986 6.457 5.186 8.441 2.2 1.984 4.713 2.943 7.245 2.767h4.187m-35.308 0v-74.948c.097-11.843-2.786-23.276-8.014-31.784-5.227-8.507-12.385-13.413-19.897-13.638-7.511.227-14.667 5.134-19.894 13.641-5.226 8.507-8.109 19.94-8.013 31.781v74.948m0-74.941V55.115"/><path fill="none" stroke="#000" stroke-linecap="round" stroke-linejoin="round" stroke-width="12" d="m89.487 52.972 30.194.033 27.912 120.37L175.5 53.005"/></svg>

<svg
    xmlns="http://www.w3.org/2000/svg"
    viewBox="0 0 192 192"
    id="vector">
    <path
        id="path"
        d="M 89.487 16.5 L 89.487 152.767 C 89.294 156.751 89.822 160.741 91.01 164.271 C 92.197 167.801 93.996 170.728 96.196 172.712 C 98.396 174.696 100.909 175.655 103.441 175.479 L 107.628 175.479 M 72.32 175.479 L 72.32 100.531 C 72.417 88.688 69.534 77.255 64.306 68.747 C 59.079 60.24 51.921 55.334 44.409 55.109 C 36.898 55.336 29.742 60.243 24.515 68.75 C 19.289 77.257 16.406 88.69 16.502 100.531 L 16.502 175.479 M 16.502 100.538 L 16.502 55.115"
        fill="none"
        stroke="#000000"
        stroke-width="12"
        stroke-linecap="round"
        stroke-linejoin="round"/>
    <path
        id="path_1"
        d="M 89.487 52.972 L 119.681 53.005 L 147.593 173.375 L 175.5 53.005"
        fill="none"
        stroke="#000000"
        stroke-width="12"
        stroke-linecap="round"
        stroke-linejoin="round"/>
</svg>
